teeny/solid/venn-diagram.svg

<svg width="15" height="15" viewBox="0 0 15 15" fill="none" xmlns="http://www.w3.org/2000/svg">
<path d="M7.5 15C5.02898 15 2.93856 13.3705 2.24474 11.1274C3.20199 11.6823 4.31389 12 5.5 12C6.19781 12 6.86994 11.89 7.5 11.6865C8.13006 11.89 8.80219 12 9.5 12C10.6861 12 11.798 11.6823 12.7553 11.1274C12.0614 13.3705 9.97102 15 7.5 15Z" fill="black"/>
<path d="M13.9545 8.72675C14.6122 7.82039 15 6.70549 15 5.5C15 2.46243 12.5376 0 9.5 0C9.47897 0 9.45796 0.000118079 9.43699 0.000353605C9.29015 0.00200229 9.14469 0.00940594 9.00083 0.0223483C10.6114 1.0538 11.737 2.77608 11.9596 4.77113C13.0395 5.78989 13.7705 7.17448 13.9545 8.72675Z" fill="black"/>
<path d="M5.99917 0.0223471C5.83476 0.00755596 5.66826 0 5.5 0C2.46243 0 0 2.46243 0 5.5C0 6.70549 0.387827 7.82039 1.04552 8.72675C1.22951 7.17448 1.96052 5.78989 3.04041 4.77112C3.26303 2.77608 4.38864 1.0538 5.99917 0.0223471Z" fill="black"/>
<path d="M2.00546 9.74734C2.95561 10.53 4.17292 11 5.5 11C5.66826 11 5.83476 10.9924 5.99918 10.9777C4.40059 9.95386 3.27976 8.24944 3.04552 6.27325C2.38783 7.17961 2 8.29451 2 9.5C2 9.58289 2.00183 9.66535 2.00546 9.74734Z" fill="black"/>
<path d="M13 9.5C13 8.29451 12.6122 7.17961 11.9545 6.27325C11.7202 8.24945 10.5994 9.95386 9.00083 10.9777C9.16524 10.9924 9.33174 11 9.5 11C10.8271 11 12.0444 10.53 12.9945 9.74734C12.9982 9.66535 13 9.58289 13 9.5Z" fill="black"/>
<path d="M7.5 0.374941C9.05096 0.980637 10.2596 2.27004 10.7553 3.87263C9.79801 3.31769 8.68611 3 7.5 3C6.31389 3 5.20199 3.31769 4.24474 3.87263C4.74044 2.27004 5.94904 0.980637 7.5 0.374941Z" fill="black"/>
<path d="M7.5 4C6.17292 4 4.95561 4.47002 4.00546 5.25266C4.00183 5.33465 4 5.41711 4 5.5C4 7.83198 5.45132 9.82499 7.5 10.6251C9.54868 9.82499 11 7.83198 11 5.5C11 5.41711 10.9982 5.33465 10.9945 5.25266C10.0444 4.47002 8.82708 4 7.5 4Z" fill="black"/>
</svg>

<svg viewBox="0 0 15 15" xmlns="http://www.w3.org/2000/svg"><g><path d="M7.5 15c-2.48 0-4.57-1.63-5.26-3.88 .95.55 2.06.87 3.25.87 .69 0 1.36-.11 2-.32 .63.2 1.3.31 2 .31 1.18 0 2.29-.32 3.25-.88 -.7 2.24-2.79 3.87-5.26 3.87Z"/><path d="M13.95 8.72c.65-.91 1.04-2.03 1.04-3.23 0-3.04-2.47-5.5-5.5-5.5 -.03 0-.05 0-.07 0 -.15 0-.3 0-.44.02 1.61 1.03 2.73 2.75 2.95 4.74 1.07 1.01 1.81 2.4 1.99 3.95Z"/><path d="M5.99.02c-.17-.02-.34-.03-.5-.03 -3.04 0-5.5 2.46-5.5 5.5 0 1.2.38 2.32 1.04 3.22 .18-1.56.915-2.94 1.99-3.96 .22-2 1.34-3.72 2.95-4.75Z"/><path d="M2 9.74c.95.78 2.16 1.25 3.49 1.25 .16 0 .33-.01.49-.03 -1.6-1.03-2.72-2.73-2.96-4.71 -.66.9-1.05 2.02-1.05 3.22 0 .08 0 .16 0 .24Z"/><path d="M13 9.5c0-1.21-.39-2.33-1.05-3.23 -.24 1.97-1.36 3.68-2.96 4.7 .16.01.33.02.49.02 1.32 0 2.54-.47 3.49-1.26 0-.09 0-.17 0-.25Z"/><path d="M7.5.37c1.55.6 2.75 1.89 3.25 3.49 -.96-.56-2.07-.88-3.26-.88s-2.3.31-3.26.87c.49-1.61 1.7-2.9 3.25-3.5Z"/><path d="M7.5 4C6.17 4 4.95 4.47 4 5.25c-.01.08-.01.16-.01.24 0 2.33 1.45 4.32 3.5 5.12 2.04-.81 3.5-2.8 3.5-5.13 0-.09-.01-.17-.01-.25 -.96-.79-2.17-1.26-3.5-1.26Z"/></g></svg>
